!!!SOCIAL_FUNCTION:	bird dance songs
!!!PDT:	1956
!!!OTL: No_177_Steal_Partner_Dance_Song_(f).krn
!!!LANG: Non-Tone
!!!LING_GROUP: Muskogean
!!!REG: Florida
**kern
*staff1
=1-
*clefF4
*k[f#]
*M2/4
4d\
16B\LK
8B\
16G\Jk
=2
4G\
4r
=3||
*M3/4
4d\
16B\LK
8B\
16G\Jk
4G\
=4||
*M2/4
4c\
16B\LK
8G\
16G\Jk
=5
4..B\
16G\
=6!|:
*M3/4
4D\
16E\LK
8D\
16D\Jk
4D\
=7||
*M2/4
8E\L
8D\J
8G\L
8G\J
=8
4G\
4r
=9
8F#\L
8D\J
8G\L
8G\J
=10||
*M3/4
4G\
8F#\L
8G\J
4D\
=11||
*M2/4
12G\L
12G\
12D\J
4D\
=12
8B\
24B\LL
24G\
24G\JJ
4G\
=13
4B\
12d\L
12B\
12B\J
=14
4.B\
8G\
=15:|!
8D\L
16G\L
16G\JJ
8G\
8r
=16
4.r
8G\
=17||
*M3/4
4D\
12E\L
12D\
12D\J
8D\
16r
16D\
=18
*M2/4
(4..d\
16B\)
==
*-
